X:1
T:Win the One Next to You
T:Win the One Next to You
T:Charles H. Forsythe
T:Charles H. Forsythe, 1920
T:Public Domain Courtesy of the Cyber Hymnal™
C:Charles H. Forsythe
Z:Public Domain
Z:Courtesy of the Cyber Hymnal™
%%score ( 1 2 ) ( 3 4 )
L:1/8
Q:1/4=100
M:6/8
K:Eb
V:1 treble 
V:2 treble 
V:3 bass 
V:4 bass 
V:1
 [EG]>[EG][EG] [EG][E^F][EG] | [EB][EB][Ec] [EB]3 | [Ge]>[Bd][Ac] [GB]2 [Gc] | [Ad]3- [Ad]2 z | %4
w: 1.~If you would work for the|Mas- ter to- day,|Win the one next to|you; *|
w: 2.~Have you looked o- ver the|great har- vest field,|Seek- ing for work to|do? *|
w: 3.~Close to your door may be|some- one in sin,|Tell him the sto- ry|true. *|
w: 4.~You may not go to a|far hea- then land,|Or to a coun- try|new; *|
 [FA]>[FA][FA] [FA][EG][FA] | ([Ac][Ac])[Ad] [Ac]2 [Ac] | [Ad]>[Ad][Ad] [Ac]2 [Ad] | %7
w: If you would show some poor|wand’rer * the way Oh,|win the one next to|
w: Has- ten, go forth, reap the|gold- * en yield, And|win the one next to|
w: Of Him Who died that poor|soul * to win, Oh,|win the one next to|
w: But in your home for the|Mas- * ter stand, And|win the one next to|
 [Ge]3- [Ge]2 z ||"^Refrain" [GB]>[GB][GB] [EG]2 E | B3- B2 z | [Ec]>[Ec][Ed] [Ee]2 [Ec] | %11
w: you. *||||
w: you. *|Win the one next to|you *|Win the one next to|
w: you. *||||
w: you. *||||
 B3- B2 z | [Ge]>[Bd][Ac] [GB][EG]E | [Ec][Ec][Ed] !fermata![Ee]2 [Ec] | [EB]>[EB][DA] [EG]2 [DF] | %15
w: ||||
w: you; *|Tell him of Je- sus, the|might- y to save, And|win the one next to|
w: ||||
w: ||||
 E3- [B,E]2 z |] %16
w: |
w: you. *|
w: |
w: |
V:2
 x6 | x6 | x6 | x6 | x6 | x6 | x6 | x6 || x5 E | (E2 D E2) x | x6 | (E2 D E2) x | x5 E | x6 | x6 | %15
 E2 C x3 |] %16
V:3
 [E,B,]>[E,B,][E,B,] [E,B,][E,=A,][E,B,] | [E,G,][E,G,][E,A,] [E,G,]3 | %2
w: ~ ~ ~ ~ ~ ~|~ ~ ~ ~|
 [E,B,]>[E,B,][E,B,] [E,E]2 [E,B,] | [F,B,]3- [F,B,]2 z | [B,,D]>[B,,D][B,,D] [B,,D][B,,E][B,,D] | %5
w: ~ ~ ~ ~ ~|~ *|~ ~ ~ ~ ~ ~|
 [B,,B,]-[B,,B,][B,,B,] [B,,B,]2 [B,,B,] | [B,,B,]>[B,,B,][B,,B,] [B,,B,]2 [B,,B,] | %7
w: ~ * ~ ~ ~|~ ~ ~ ~ ~|
 [E,B,]3- [E,B,]2 z || [E,E]>[E,E][E,E] [E,B,]2 [E,G,] | [E,G,]2 [F,A,] [G,B,]2 z | %10
w: ~ *|~ ~ ~ ~ ~|~ to you|
 A,>A,[A,B,] [A,,C]2 [A,,A,] | [E,G,]2 [F,A,] [E,G,]2 z | [E,B,]>[E,B,][E,B,] [E,B,][E,B,][G,B,] | %13
w: ~ ~ ~ ~ ~|~ to you|~ ~ ~ ~ ~ ~|
 A,A,[A,B,] !fermata![A,,C]2 [A,,A,] | [B,,G,]>[B,,G,][B,,F,] [B,,B,]2 [B,,A,] | %15
w: ~ ~ ~ ~ ~|~ ~ ~ ~ ~|
 G,2 A, [E,G,]2 z |] %16
w: ~ to~you *|
V:4
 x6 | x6 | x6 | x6 | x6 | x6 | x6 | x6 || x6 | x6 | A,>A, x4 | x6 | x6 | A,A, x4 | x6 | E,3- x3 |] %16

